src/assets/images/ca1.svg

<svg width="77" height="67" viewBox="0 0 77 67" fill="none" xmlns="http://www.w3.org/2000/svg">
<rect width="76.6974" height="67" rx="8.81579" fill="#F5844D"/>
<path d="M40.6731 16.4649L37.923 30.9138L47.8857 30.9473L34.3247 50.535L37.0748 34.6389L27.1127 34.6042L40.6731 16.4649ZM40.675 14.0274C40.6092 14.0274 40.5434 14.0298 40.4788 14.0347C40.0486 14.0694 39.7633 14.2132 39.4252 14.4405C39.2348 14.5675 39.0631 14.7205 38.9151 14.8951C38.8707 14.9475 38.8288 15.002 38.7896 15.0584L25.1316 33.1343C24.5923 33.8735 24.5131 34.8492 24.9275 35.6645C25.3413 36.4798 26.1779 36.9966 27.095 37.0033L34.1309 37.0545L31.9189 50.0872C31.7086 51.2072 32.3058 52.3236 33.357 52.7733C33.6625 52.9046 33.9915 52.9722 34.324 52.972C35.09 52.972 35.7195 52.6137 36.1918 51.9665L49.8668 32.3787C50.4061 31.6395 50.4847 30.6627 50.0709 29.8485C49.6572 29.0332 48.8205 28.5164 47.9034 28.5098L40.8675 28.4976L43.0558 17.0383C43.1022 16.8507 43.1255 16.6581 43.1253 16.4648C43.1253 15.1462 42.0753 14.0712 40.7615 14.0286C40.7323 14.0273 40.7036 14.0273 40.675 14.0273L40.675 14.0274Z" fill="white"/>
</svg>

<svg xmlns="http://www.w3.org/2000/svg" width="77" height="67" fill="none"><rect width="76.697" height="67" fill="#F5844D" rx="8.816"/><path fill="#fff" d="m40.673 16.465-2.75 14.449 9.963.033-13.561 19.588 2.75-15.896-9.962-.035zm.002-2.438q-.1 0-.196.008c-.43.034-.716.178-1.054.406a2.5 2.5 0 0 0-.635.617L25.132 33.134a2.42 2.42 0 0 0-.205 2.53 2.45 2.45 0 0 0 2.168 1.34l7.036.05-2.212 13.033a2.445 2.445 0 0 0 2.405 2.885c.766 0 1.395-.358 1.868-1.005l13.675-19.588c.54-.74.618-1.716.204-2.53a2.45 2.45 0 0 0-2.168-1.34l-7.035-.011 2.188-11.46q.07-.282.07-.573a2.44 2.44 0 0 0-2.364-2.436q-.044-.003-.087-.002"/></svg>
